resources/haticons/SVG/brightness_auto.svg

<!-- Generated by IcoMoon.io -->
<svg version="1.1" xmlns="http://www.w3.org/2000/svg" width="24" height="24" viewBox="0 0 24 24">
<title>brightness_auto</title>
<path d="M14.297 15.984h1.922l-3.234-9h-1.969l-3.234 9h1.922l0.703-1.969h3.188zM20.016 8.672l3.281 3.328-3.281 3.328v4.688h-4.688l-3.328 3.281-3.328-3.281h-4.688v-4.688l-3.281-3.328 3.281-3.328v-4.688h4.688l3.328-3.281 3.328 3.281h4.688v4.688zM10.828 12.656l1.172-3.656 1.172 3.656h-2.344z"></path>
</svg>

<svg xmlns="http://www.w3.org/2000/svg" width="24" height="24"><path d="M14.297 15.984h1.922l-3.234-9h-1.969l-3.234 9h1.922l.703-1.969h3.188zm5.719-7.312L23.297 12l-3.281 3.328v4.688h-4.688L12 23.297l-3.328-3.281H3.984v-4.688L.703 12l3.281-3.328V3.984h4.688L12 .703l3.328 3.281h4.688v4.688zm-9.188 3.984L12 9l1.172 3.656h-2.344z"/></svg>
